material/.icons/material/alpha-m.svg

<svg xmlns="http://www.w3.org/2000/svg" viewBox="0 0 24 24"><path d="M9 7a2 2 0 00-2 2v8h2V9h2v7h2V9h2v8h2V9a2 2 0 00-2-2H9z"/></svg>

<?xml version="1.0" encoding="UTF-8"?><!DOCTYPE svg PUBLIC "-//W3C//DTD SVG 1.1//EN" "http://www.w3.org/Graphics/SVG/1.1/DTD/svg11.dtd"><svg xmlns="http://www.w3.org/2000/svg" xmlns:xlink="http://www.w3.org/1999/xlink" version="1.1" id="mdi-alpha-m" width="24" height="24" viewBox="0 0 24 24"><path d="M9,7A2,2 0 0,0 7,9V17H9V9H11V16H13V9H15V17H17V9A2,2 0 0,0 15,7H9Z" /></svg>
